Adwaita++-Dark/actions/16/bookmark-remove.svg

<svg height="16" viewBox="0 0 16 16" width="16" xmlns="http://www.w3.org/2000/svg">
  <path d="m4 .00390625s-1 .00001-1 .99999995v13.9999998l5-3 5 3v-13.9999998c0-.0000999 0-.99999995-1-.99999995zm1 4.99999995h6v2h-6z" fill="#e6ddff"/>
</svg>

<svg xmlns="http://www.w3.org/2000/svg" width="16" height="16" viewBox="0 0 16 16">
 <defs>
  <style id="current-color-scheme" type="text/css">
   .ColorScheme-Text { color:#E6DDFF; } .ColorScheme-Highlight { color:#4285f4; }
  </style>
 </defs>
 <path style="fill:currentColor" class="ColorScheme-Text" d="M 4 0.00390625 C 4 0.00390625 3 0.00391625 3 1.0039062 L 3 15.003906 L 8 12.003906 L 13 15.003906 L 13 1.0039062 C 13 1.0038063 13 0.00390625 12 0.00390625 L 4 0.00390625 z M 5 5.0039062 L 11 5.0039062 L 11 7.0039062 L 5 7.0039062 L 5 5.0039062 z"/>
</svg>
